public/email-black.svg

<svg width="16" height="15" viewBox="0 0 16 15" fill="none" xmlns="http://www.w3.org/2000/svg">
<path d="M1 4.5L8 8.5L15 4.5M2 1.5H14C14.5523 1.5 15 1.94772 15 2.5V12.5C15 13.0523 14.5523 13.5 14 13.5H2C1.44772 13.5 1 13.0523 1 12.5V2.5C1 1.94772 1.44772 1.5 2 1.5Z" stroke="#403E50" stroke-width="1.8"/>
</svg>

<svg width="16" height="15" fill="none" xmlns="http://www.w3.org/2000/svg"><path d="m1 4.5 7 4 7-4m-13-3h12a1 1 0 0 1 1 1v10a1 1 0 0 1-1 1H2a1 1 0 0 1-1-1v-10a1 1 0 0 1 1-1z" stroke="#403E50" stroke-width="1.8"/></svg>
